src/assets/images/menu-icon-2.svg

<svg width="14" height="13" viewBox="0 0 14 13" fill="none" xmlns="http://www.w3.org/2000/svg">
<path d="M4.95898 7.98049V3.54018C5.19403 3.51207 5.42652 3.48652 5.65646 3.45331C7.24813 3.22849 8.72993 2.69197 10.1044 1.85909C10.153 1.82843 10.1939 1.76456 10.2117 1.70835C10.3497 1.2306 10.7942 0.924017 11.2771 0.982779C11.7625 1.04154 12.1381 1.45798 12.1381 1.95617C12.1381 4.55956 12.1381 7.16039 12.1381 9.76377C12.1381 10.285 11.7702 10.6912 11.2592 10.7525C10.7866 10.8087 10.3472 10.4945 10.2092 10.0065C10.1939 9.95539 10.153 9.89663 10.107 9.86852C8.71972 8.94367 7.20214 8.34584 5.55937 8.07247C5.36521 8.03926 5.16848 8.01371 4.95898 7.98305V7.98049Z" fill="#FAFAFF"/>
<path d="M4.45718 3.57275V7.9211C4.4393 7.92876 4.41886 7.93898 4.40098 7.93898C3.66263 7.93132 2.92428 7.94665 2.18593 7.91343C1.03625 7.86234 0.185486 6.97581 0.154827 5.83635C0.121614 4.64834 0.903395 3.71327 2.06585 3.60852C2.67135 3.55487 3.28707 3.58042 3.89767 3.57275C4.07907 3.57275 4.26302 3.57275 4.45718 3.57275Z" fill="#FAFAFF"/>
<path d="M2.80908 8.41598C3.27151 8.41598 3.72883 8.40576 4.18614 8.41853C4.50039 8.42875 4.81463 8.47474 5.12888 8.50029C5.22596 8.50795 5.27962 8.54628 5.31538 8.64336C5.62707 9.49157 5.94898 10.3398 6.26323 11.188C6.46762 11.7373 6.12271 12.2278 5.53254 12.2278C5.31283 12.2278 5.09311 12.2355 4.87595 12.2278C4.46206 12.2125 4.14015 12.0209 3.99197 11.6351C3.58831 10.5876 3.20508 9.52989 2.81675 8.4773C2.80908 8.45941 2.81164 8.43897 2.81164 8.41853L2.80908 8.41598Z" fill="#FAFAFF"/>
<path d="M12.6333 7.65671V4.07227C13.2286 4.17701 13.8136 4.99456 13.8443 5.76102C13.8877 6.83916 13.1622 7.50853 12.6333 7.65671Z" fill="#FAFAFF"/>
</svg>

<svg xmlns="http://www.w3.org/2000/svg" width="14" height="13" fill="none"><path fill="#FAFAFF" d="M4.959 7.98V3.54c.235-.028.468-.053.697-.087a11.647 11.647 0 0 0 4.448-1.594.293.293 0 0 0 .108-.15.988.988 0 0 1 1.065-.726.983.983 0 0 1 .861.973v7.808a.977.977 0 0 1-.879.989c-.472.056-.912-.258-1.05-.746a.263.263 0 0 0-.102-.138 11.519 11.519 0 0 0-4.548-1.797c-.194-.033-.39-.058-.6-.089V7.98ZM4.457 3.573V7.92c-.018.008-.038.018-.056.018-.738-.008-1.477.008-2.215-.026-1.15-.05-2-.937-2.031-2.077-.033-1.188.748-2.123 1.91-2.227.606-.054 1.222-.029 1.833-.036h.56ZM2.81 8.416c.462 0 .919-.01 1.376.003.314.01.629.056.943.081.097.008.15.046.186.143.312.849.634 1.697.948 2.545.205.55-.14 1.04-.73 1.04-.22 0-.44.008-.657 0-.414-.015-.736-.207-.884-.593-.404-1.047-.787-2.105-1.175-3.158-.008-.018-.005-.038-.005-.058l-.003-.003ZM12.633 7.657V4.072c.596.105 1.18.923 1.211 1.689.044 1.078-.682 1.748-1.21 1.896Z"/></svg>
